X: 4607
T: Bourée Sans Souci
R: barndance
M: 4/4
K: Eminor
B|E>FGA Be e2|d>cBA c2 B2|A>GFA G>FEG|FGAG G2 FB|
E>FGA Be e2|f>edc c2 B2|A>GFA G>FEG|1 FGGF E3:|2 FGGF EFGA||
B3 c B3 B|ABcA B2 G2|E2 GA B2 B2|ABcd B4|
B3 c B3 G|ABcd B2 e2|d2 BG B2 GE|1 FGGF EFGA:|2 FGGF E3||

